Gawaita/scalable/mimetypes/x-office-presentation-template.svg

<?xml version="1.0" encoding="UTF-8"?>
<svg height="128px" viewBox="0 0 128 128" width="128px" xmlns="http://www.w3.org/2000/svg" xmlns:xlink="http://www.w3.org/1999/xlink">
    <linearGradient id="a" gradientUnits="userSpaceOnUse" x1="64" x2="64" y1="276" y2="284">
        <stop offset="0" stop-color="#414140"/>
        <stop offset="1" stop-color="#949390"/>
    </linearGradient>
    <linearGradient id="b" gradientUnits="userSpaceOnUse" x1="18.20984075" x2="109.79022225" y1="102" y2="102">
        <stop offset="0" stop-color="#c7c6c3"/>
        <stop offset="0.024221" stop-color="#e8e7e3"/>
        <stop offset="0.0686115" stop-color="#cbcac7"/>
        <stop offset="0.916655" stop-color="#cbcac7"/>
        <stop offset="0.960246" stop-color="#eae8e4"/>
        <stop offset="1" stop-color="#acaba8"/>
    </linearGradient>
    <clipPath id="c">
        <path d="m 18 20 h 92 v 80 h -92 z m 0 0"/>
    </clipPath>
    <clipPath id="d">
        <path d="m 24 20 h 80 c 3.3125 0 6 2.6875 6 6 v 68 c 0 3.3125 -2.6875 6 -6 6 h -80 c -3.3125 0 -6 -2.6875 -6 -6 v -68 c 0 -3.3125 2.6875 -6 6 -6 z m 0 0"/>
    </clipPath>
    <linearGradient id="e" gradientTransform="matrix(0.2875 0 0 0.27027 -331.600006 -696.756775)" gradientUnits="userSpaceOnUse" x1="1376" x2="1376" y1="2692" y2="2932">
        <stop offset="0" stop-color="#f6f5f4"/>
        <stop offset="1" stop-color="#ffffff"/>
    </linearGradient>
    <clipPath id="f">
        <path d="m 82 40 h 14 v 44 h -14 z m 0 0"/>
    </clipPath>
    <clipPath id="g">
        <path d="m 24 20 h 80 c 3.3125 0 6 2.6875 6 6 v 68 c 0 3.3125 -2.6875 6 -6 6 h -80 c -3.3125 0 -6 -2.6875 -6 -6 v -68 c 0 -3.3125 2.6875 -6 6 -6 z m 0 0"/>
    </clipPath>
    <clipPath id="h">
        <path d="m 34 48 h 36 v 36 h -36 z m 0 0"/>
    </clipPath>
    <clipPath id="i">
        <path d="m 24 20 h 80 c 3.3125 0 6 2.6875 6 6 v 68 c 0 3.3125 -2.6875 6 -6 6 h -80 c -3.3125 0 -6 -2.6875 -6 -6 v -68 c 0 -3.3125 2.6875 -6 6 -6 z m 0 0"/>
    </clipPath>
    <clipPath id="j">
        <path d="m 33 48 h 37 v 37 h -37 z m 0 0"/>
    </clipPath>
    <clipPath id="k">
        <path d="m 24 20 h 80 c 3.3125 0 6 2.6875 6 6 v 68 c 0 3.3125 -2.6875 6 -6 6 h -80 c -3.3125 0 -6 -2.6875 -6 -6 v -68 c 0 -3.3125 2.6875 -6 6 -6 z m 0 0"/>
    </clipPath>
    <clipPath id="l">
        <path d="m 56 44 h 18 v 18 h -18 z m 0 0"/>
    </clipPath>
    <clipPath id="m">
        <path d="m 24 20 h 80 c 3.3125 0 6 2.6875 6 6 v 68 c 0 3.3125 -2.6875 6 -6 6 h -80 c -3.3125 0 -6 -2.6875 -6 -6 v -68 c 0 -3.3125 2.6875 -6 6 -6 z m 0 0"/>
    </clipPath>
    <clipPath id="n">
        <path d="m 55 44 h 19 v 19 h -19 z m 0 0"/>
    </clipPath>
    <clipPath id="o">
        <path d="m 24 20 h 80 c 3.3125 0 6 2.6875 6 6 v 68 c 0 3.3125 -2.6875 6 -6 6 h -80 c -3.3125 0 -6 -2.6875 -6 -6 v -68 c 0 -3.3125 2.6875 -6 6 -6 z m 0 0"/>
    </clipPath>
    <clipPath id="p">
        <path d="m 18 24 h 46 v 76 h -46 z m 0 0"/>
    </clipPath>
    <clipPath id="q">
        <path d="m 24 20 h 80 c 3.3125 0 6 2.6875 6 6 v 68 c 0 3.3125 -2.6875 6 -6 6 h -80 c -3.3125 0 -6 -2.6875 -6 -6 v -68 c 0 -3.3125 2.6875 -6 6 -6 z m 0 0"/>
    </clipPath>
    <clipPath id="r">
        <path d="m 62 24 h 48 v 76 h -48 z m 0 0"/>
    </clipPath>
    <clipPath id="s">
        <path d="m 24 20 h 80 c 3.3125 0 6 2.6875 6 6 v 68 c 0 3.3125 -2.6875 6 -6 6 h -80 c -3.3125 0 -6 -2.6875 -6 -6 v -68 c 0 -3.3125 2.6875 -6 6 -6 z m 0 0"/>
    </clipPath>
    <linearGradient id="t" gradientUnits="userSpaceOnUse" x1="82.25" x2="82.25" y1="12" y2="26">
        <stop offset="0" stop-color="#deddda"/>
        <stop offset="1" stop-color="#9a9996"/>
    </linearGradient>
    <path d="m 83 286 l -14 -14 m -24 14 l 14 -14" fill="none" stroke="url(#a)" stroke-linecap="round" stroke-width="6" transform="matrix(1 0 0 1 0 -172)"/>
    <path d="m 24 24 h 80 c 3.3125 0 6 2.6875 6 6 v 68 c 0 3.3125 -2.6875 6 -6 6 h -80 c -3.3125 0 -6 -2.6875 -6 -6 v -68 c 0 -3.3125 2.6875 -6 6 -6 z m 0 0" fill="url(#b)"/>
    <g clip-path="url(#c)">
        <g clip-path="url(#d)">
            <path d="m 24 20 h 80 c 3.3125 0 6 2.6875 6 6 v 68 c 0 3.3125 -2.6875 6 -6 6 h -80 c -3.3125 0 -6 -2.6875 -6 -6 v -68 c 0 -3.3125 2.6875 -6 6 -6 z m 0 0" fill="url(#e)"/>
        </g>
    </g>
    <g clip-path="url(#f)">
        <g clip-path="url(#g)">
            <path d="m 84 80 h 10 c 1.105469 0 2 0.894531 2 2 s -0.894531 2 -2 2 h -10 c -1.105469 0 -2 -0.894531 -2 -2 s 0.894531 -2 2 -2 z m 0 -10 h 10 c 1.105469 0 2 0.894531 2 2 s -0.894531 2 -2 2 h -10 c -1.105469 0 -2 -0.894531 -2 -2 s 0.894531 -2 2 -2 z m 0 -10 h 10 c 1.105469 0 2 0.894531 2 2 s -0.894531 2 -2 2 h -10 c -1.105469 0 -2 -0.894531 -2 -2 s 0.894531 -2 2 -2 z m 0 -10 h 10 c 1.105469 0 2 0.894531 2 2 s -0.894531 2 -2 2 h -10 c -1.105469 0 -2 -0.894531 -2 -2 s 0.894531 -2 2 -2 z m 0 -10 h 10 c 1.105469 0 2 0.894531 2 2 s -0.894531 2 -2 2 h -10 c -1.105469 0 -2 -0.894531 -2 -2 s 0.894531 -2 2 -2 z m 0 0" fill="#d5d3cf"/>
        </g>
    </g>
    <g clip-path="url(#h)">
        <g clip-path="url(#i)">
            <path d="m 69.886719 67.996094 c -0.648438 5.804687 -4.082031 10.945312 -9.199219 13.765625 c -0.964844 0.53125 -2.625 1.21875 -3.6875 1.527343 c -5.609375 1.625 -11.675781 0.417969 -16.234375 -3.230468 c -0.863281 -0.691406 -2.132813 -1.960938 -2.824219 -2.824219 c -3.648437 -4.558594 -4.855468 -10.625 -3.230468 -16.234375 c 0.308593 -1.0625 0.996093 -2.722656 1.527343 -3.6875 c 2.820313 -5.117188 7.960938 -8.550781 13.765625 -9.199219 c 1.097656 -0.121093 1.996094 0.785157 1.996094 1.890625 v 13.996094 c 0 1.105469 0.894531 2 2 2 h 13.996094 c 1.105468 0 2.011718 0.898438 1.890625 1.996094 z m 0 0" fill="#d5d3cf"/>
        </g>
    </g>
    <g clip-path="url(#j)">
        <g clip-path="url(#k)">
            <path d="m 86.546875 258.984375 c -2.59375 23.21875 -16.328125 43.78125 -36.796875 55.0625 c -3.859375 2.125 -10.5 4.875 -14.75 6.109375 c -22.4375 6.5 -46.703125 1.671875 -64.9375 -12.921875 c -3.453125 -2.765625 -8.53125 -7.84375 -11.296875 -11.296875 c -14.59375 -18.234375 -19.421875 -42.5 -12.921875 -64.9375 c 1.234375 -4.25 3.984375 -10.890625 6.109375 -14.75 c 11.28125 -20.46875 31.84375 -34.203125 55.0625 -36.796875 c 4.390625 -0.484375 7.984375 3.140625 7.984375 7.5625 v 55.984375 c 0 4.421875 3.578125 8 8 8 h 55.984375 c 4.421875 0 8.046875 3.59375 7.5625 7.984375 z m 0 0" fill="none" stroke="#204a87" stroke-width="0.007262" transform="matrix(0.25 0 0 0.25 48.25 3.25)"/>
        </g>
    </g>
    <g clip-path="url(#l)">
        <g clip-path="url(#m)">
            <path d="m 57.996094 44.113281 c 8.34375 0.921875 14.96875 7.546875 15.890625 15.890625 c 0.121093 1.097656 -0.785157 1.996094 -1.890625 1.996094 h -13.996094 c -1.105469 0 -2 -0.894531 -2 -2 v -13.996094 c 0 -1.105468 0.898438 -2.011718 1.996094 -1.890625 z m 0 0" fill="#d5d3cf"/>
        </g>
    </g>
    <g clip-path="url(#n)">
        <g clip-path="url(#o)">
            <path d="m 38.984375 163.453125 c 33.375 3.6875 59.875 30.1875 63.5625 63.5625 c 0.484375 4.390625 -3.140625 7.984375 -7.5625 7.984375 h -55.984375 c -4.421875 0 -8 -3.578125 -8 -8 v -55.984375 c 0 -4.421875 3.59375 -8.046875 7.984375 -7.5625 z m 0 0" fill="none" stroke="#204a87" stroke-width="0.007262" transform="matrix(0.25 0 0 0.25 48.25 3.25)"/>
        </g>
    </g>
    <g clip-path="url(#p)">
        <g clip-path="url(#q)">
            <path d="m 16 104 v -80 h 48 z m 0 0" fill-opacity="0.086275"/>
        </g>
    </g>
    <g clip-path="url(#r)">
        <g clip-path="url(#s)">
            <path d="m 110 104 v -80 h -48 z m 0 0" fill="#ffffff" fill-opacity="0.505882"/>
        </g>
    </g>
    <path d="m 20 12 h 88 c 4.417969 0 8 3.582031 8 8 s -3.582031 8 -8 8 h -88 c -4.417969 0 -8 -3.582031 -8 -8 s 3.582031 -8 8 -8 z m 0 0" fill="url(#t)"/>
    <path d="m 18 18 h 92" fill="none" stroke="#deddda" stroke-linecap="round" stroke-width="4"/>
</svg>

<svg width="128" height="128" viewBox="0 0 128 128" fill="none" xmlns="http://www.w3.org/2000/svg">
<path d="M83 114L69 100M45 114L59 100" stroke="url(#paint0_linear_1_2647)" stroke-width="6" stroke-linecap="round"/>
<path d="M24 24H104C107.312 24 110 26.6875 110 30V98C110 101.312 107.312 104 104 104H24C20.6875 104 18 101.312 18 98V30C18 26.6875 20.6875 24 24 24Z" fill="url(#paint1_linear_1_2647)"/>
<mask id="mask0_1_2647" style="mask-type:luminance" maskUnits="userSpaceOnUse" x="18" y="20" width="92" height="80">
<path d="M18 20H110V100H18V20Z" fill="white"/>
</mask>
<g mask="url(#mask0_1_2647)">
<mask id="mask1_1_2647" style="mask-type:luminance" maskUnits="userSpaceOnUse" x="18" y="20" width="92" height="80">
<path d="M24 20H104C107.312 20 110 22.6875 110 26V94C110 97.3125 107.312 100 104 100H24C20.6875 100 18 97.3125 18 94V26C18 22.6875 20.6875 20 24 20Z" fill="white"/>
</mask>
<g mask="url(#mask1_1_2647)">
<path d="M24 20H104C107.312 20 110 22.6875 110 26V94C110 97.3125 107.312 100 104 100H24C20.6875 100 18 97.3125 18 94V26C18 22.6875 20.6875 20 24 20Z" fill="url(#paint2_linear_1_2647)"/>
</g>
</g>
<mask id="mask2_1_2647" style="mask-type:luminance" maskUnits="userSpaceOnUse" x="82" y="40" width="14" height="44">
<path d="M82 40H96V84H82V40Z" fill="white"/>
</mask>
<g mask="url(#mask2_1_2647)">
<mask id="mask3_1_2647" style="mask-type:luminance" maskUnits="userSpaceOnUse" x="18" y="20" width="92" height="80">
<path d="M24 20H104C107.312 20 110 22.6875 110 26V94C110 97.3125 107.312 100 104 100H24C20.6875 100 18 97.3125 18 94V26C18 22.6875 20.6875 20 24 20Z" fill="white"/>
</mask>
<g mask="url(#mask3_1_2647)">
<path d="M84 80H94C95.1055 80 96 80.8945 96 82C96 83.1055 95.1055 84 94 84H84C82.8945 84 82 83.1055 82 82C82 80.8945 82.8945 80 84 80ZM84 70H94C95.1055 70 96 70.8945 96 72C96 73.1055 95.1055 74 94 74H84C82.8945 74 82 73.1055 82 72C82 70.8945 82.8945 70 84 70ZM84 60H94C95.1055 60 96 60.8945 96 62C96 63.1055 95.1055 64 94 64H84C82.8945 64 82 63.1055 82 62C82 60.8945 82.8945 60 84 60ZM84 50H94C95.1055 50 96 50.8945 96 52C96 53.1055 95.1055 54 94 54H84C82.8945 54 82 53.1055 82 52C82 50.8945 82.8945 50 84 50ZM84 40H94C95.1055 40 96 40.8945 96 42C96 43.1055 95.1055 44 94 44H84C82.8945 44 82 43.1055 82 42C82 40.8945 82.8945 40 84 40Z" fill="#D5D3CF"/>
</g>
</g>
<mask id="mask4_1_2647" style="mask-type:luminance" maskUnits="userSpaceOnUse" x="34" y="48" width="36" height="36">
<path d="M34 48H70V84H34V48Z" fill="white"/>
</mask>
<g mask="url(#mask4_1_2647)">
<mask id="mask5_1_2647" style="mask-type:luminance" maskUnits="userSpaceOnUse" x="18" y="20" width="92" height="80">
<path d="M24 20H104C107.312 20 110 22.6875 110 26V94C110 97.3125 107.312 100 104 100H24C20.6875 100 18 97.3125 18 94V26C18 22.6875 20.6875 20 24 20Z" fill="white"/>
</mask>
<g mask="url(#mask5_1_2647)">
<path d="M69.8867 67.9961C69.2382 73.8008 65.8046 78.9414 60.6875 81.7617C59.7226 82.293 58.0625 82.9805 57 83.2891C51.3906 84.9141 45.3242 83.707 40.7656 80.0586C39.9023 79.3672 38.6328 78.0977 37.9414 77.2344C34.2929 72.6758 33.0859 66.6094 34.7109 61C35.0195 59.9375 35.707 58.2774 36.2382 57.3125C39.0586 52.1953 44.1992 48.7617 50.0039 48.1133C51.1015 47.9922 52 48.8985 52 50.0039V64C52 65.1055 52.8945 66 54 66H67.9961C69.1015 66 70.0078 66.8985 69.8867 67.9961Z" fill="#D5D3CF"/>
</g>
</g>
<mask id="mask6_1_2647" style="mask-type:luminance" maskUnits="userSpaceOnUse" x="33" y="48" width="37" height="37">
<path d="M33 48H70V85H33V48Z" fill="white"/>
</mask>
<g mask="url(#mask6_1_2647)">
<mask id="mask7_1_2647" style="mask-type:luminance" maskUnits="userSpaceOnUse" x="18" y="20" width="92" height="80">
<path d="M24 20H104C107.312 20 110 22.6875 110 26V94C110 97.3125 107.312 100 104 100H24C20.6875 100 18 97.3125 18 94V26C18 22.6875 20.6875 20 24 20Z" fill="white"/>
</mask>
<g mask="url(#mask7_1_2647)">
<path d="M69.8867 67.9961C69.2382 73.8008 65.8046 78.9414 60.6875 81.7617C59.7226 82.293 58.0625 82.9805 57 83.2891C51.3906 84.9141 45.3242 83.707 40.7656 80.0586C39.9023 79.3672 38.6328 78.0977 37.9414 77.2344C34.2929 72.6758 33.0859 66.6094 34.7109 61C35.0195 59.9375 35.707 58.2774 36.2382 57.3125C39.0586 52.1953 44.1992 48.7617 50.0039 48.1133C51.1015 47.9922 52 48.8985 52 50.0039V64C52 65.1055 52.8945 66 54 66H67.9961C69.1015 66 70.0078 66.8985 69.8867 67.9961Z" stroke="#204A87" stroke-width="0.0018155"/>
</g>
</g>
<mask id="mask8_1_2647" style="mask-type:luminance" maskUnits="userSpaceOnUse" x="56" y="44" width="18" height="18">
<path d="M56 44H74V62H56V44Z" fill="white"/>
</mask>
<g mask="url(#mask8_1_2647)">
<mask id="mask9_1_2647" style="mask-type:luminance" maskUnits="userSpaceOnUse" x="18" y="20" width="92" height="80">
<path d="M24 20H104C107.312 20 110 22.6875 110 26V94C110 97.3125 107.312 100 104 100H24C20.6875 100 18 97.3125 18 94V26C18 22.6875 20.6875 20 24 20Z" fill="white"/>
</mask>
<g mask="url(#mask9_1_2647)">
<path d="M57.9961 44.1133C66.3398 45.0352 72.9648 51.6602 73.8867 60.0039C74.0078 61.1016 73.1016 62 71.9961 62H58C56.8945 62 56 61.1055 56 60V46.0039C56 44.8985 56.8984 43.9922 57.9961 44.1133Z" fill="#D5D3CF"/>
</g>
</g>
<mask id="mask10_1_2647" style="mask-type:luminance" maskUnits="userSpaceOnUse" x="55" y="44" width="19" height="19">
<path d="M55 44H74V63H55V44Z" fill="white"/>
</mask>
<g mask="url(#mask10_1_2647)">
<mask id="mask11_1_2647" style="mask-type:luminance" maskUnits="userSpaceOnUse" x="18" y="20" width="92" height="80">
<path d="M24 20H104C107.312 20 110 22.6875 110 26V94C110 97.3125 107.312 100 104 100H24C20.6875 100 18 97.3125 18 94V26C18 22.6875 20.6875 20 24 20Z" fill="white"/>
</mask>
<g mask="url(#mask11_1_2647)">
<path d="M57.9961 44.1133C66.3398 45.0352 72.9648 51.6602 73.8867 60.0039C74.0078 61.1016 73.1016 62 71.9961 62H58C56.8945 62 56 61.1055 56 60V46.0039C56 44.8985 56.8984 43.9922 57.9961 44.1133Z" stroke="#204A87" stroke-width="0.0018155"/>
</g>
</g>
<path d="M20 12H108C112.418 12 116 15.582 116 20C116 24.418 112.418 28 108 28H20C15.582 28 12 24.418 12 20C12 15.582 15.582 12 20 12Z" fill="url(#paint3_linear_1_2647)"/>
<path d="M18 18H110" stroke="#DEDDDA" stroke-width="4" stroke-linecap="round"/>
<rect x="18" y="28" width="92" height="76" fill="url(#paint4_linear_1_2647)"/>
<defs>
<linearGradient id="paint0_linear_1_2647" x1="64" y1="104" x2="64" y2="112" gradientUnits="userSpaceOnUse">
<stop stop-color="#414140"/>
<stop offset="1" stop-color="#949390"/>
</linearGradient>
<linearGradient id="paint1_linear_1_2647" x1="18.2098" y1="102" x2="109.79" y2="102" gradientUnits="userSpaceOnUse">
<stop stop-color="#C7C6C3"/>
<stop offset="0.024221" stop-color="#E8E7E3"/>
<stop offset="0.0686115" stop-color="#CBCAC7"/>
<stop offset="0.916655" stop-color="#CBCAC7"/>
<stop offset="0.960246" stop-color="#EAE8E4"/>
<stop offset="1" stop-color="#ACABA8"/>
</linearGradient>
<linearGradient id="paint2_linear_1_2647" x1="64" y1="30.8101" x2="64" y2="95.6749" gradientUnits="userSpaceOnUse">
<stop stop-color="#F6F5F4"/>
<stop offset="1" stop-color="white"/>
</linearGradient>
<linearGradient id="paint3_linear_1_2647" x1="82.25" y1="12" x2="82.25" y2="26" gradientUnits="userSpaceOnUse">
<stop stop-color="#DEDDDA"/>
<stop offset="1" stop-color="#9A9996"/>
</linearGradient>
<linearGradient id="paint4_linear_1_2647" x1="19.5506" y1="30.0357" x2="68.5687" y2="123.049" gradientUnits="userSpaceOnUse">
<stop stop-color="white" stop-opacity="0.545"/>
<stop offset="0.153846" stop-color="white"/>
<stop offset="0.453861" stop-color="white" stop-opacity="0.3175"/>
<stop offset="0.586538" stop-color="white" stop-opacity="0.09"/>
<stop offset="0.745192" stop-color="white"/>
<stop offset="0.860577" stop-color="white" stop-opacity="0"/>
</linearGradient>
</defs>
</svg>
